X:1
T:Chantilly, CMD
T:Chantilly, CMD
T:Benjamin Franklin Butts, Sr., 1902
T:Public Domain Courtesy of the Cyber Hymnal™
C:Benjamin Franklin Butts, Sr., 1902
Z:Public Domain
Z:Courtesy of the Cyber Hymnal™
%%score ( 1 2 ) ( 3 4 )
L:1/8
Q:1/4=105
M:6/8
K:F
V:1 treble 
V:2 treble 
V:3 bass 
V:4 bass 
V:1
 C | [FA]2 [FA] [CG]2 [CF] | [CF]2 [CE] [CE]2 [EB] | [EB]2 [CE] [CF]2 [EG] | [FA]3- [FA]2 [Fc] | %5
 [Fc]2 [Fc] [FB]2 [_EA] | [DG]2 [DG] !fermata![DB]2 [B,D] | [A,C]2 [CF] [CF]2 [CE] | %8
 [CF]3- [CF]2 [Fc] | [Ec]2 [EG] [EG]2 [Ec] | [Fc]2 [FA] [FA]2 [FA] | [EG]2 [EG] [FA]2 [F=B] | %12
 c3- !fermata![Gc]2 [Ec] | [Fc]2 [FA] [Af]2 [ce] | [ce]2 [Bd] !fermata![Bd]2 [^Gd] | %15
 [Ac]2 [FA] [FA]2 [CG] | [CF]3- [CF]2 |] %17
V:2
 C | x6 | x6 | x6 | x6 | x6 | x6 | x6 | x6 | x6 | x6 | x6 | E2 F x3 | x6 | x6 | x6 | x5 |] %17
V:3
 [F,A,] | [F,C]2 [F,C] [F,B,]2 [F,A,] | [C,A,]2 [C,G,] [C,G,]2 [C,C] | [C,C]2 [B,C] [A,C]2 [G,C] | %4
 [F,C]3- [F,C]2 [F,A,] | [F,A,]2 [F,A,] [F,D]2 [F,C] | [B,,B,]2 [B,,B,] !fermata![B,,F,]2 [B,,F,] | %7
 [C,F,]2 [C,A,] [C,A,]2 [C,B,] | [F,A,]3- [F,A,]2 [F,A,] | [C,G,]2 [C,C] [C,C]2 [C,B,] | %10
 [F,A,]2 [F,C] [F,C]2 [F,C] | [G,C]2 [G,C] [G,=B,]2 [G,D] | CG,A, !fermata![C,B,]2 [C,B,] | %13
 [F,A,]2 [F,C] [F,C]2 [A,F] | [B,F]2 [B,F] [B,F]2 [=B,F] | [CE]2 [C,C] [C,C]2 [C,B,] | %16
 [F,A,]3- [F,A,]2 |] %17
V:4
 x | x6 | x6 | x6 | x6 | x6 | x6 | x6 | x6 | x6 | x6 | x6 | C,3- x3 | x6 | x6 | x6 | x5 |] %17

